client/public/assets/icons/utility/volume_high.svg

<?xml version="1.0"?><svg xmlns="http://www.w3.org/2000/svg" width="52" height="52" viewBox="0 0 52 52"><g fill="#fff"><path d="m24.6 2.6l-12.6 15.4h-6c-2.2 0-4 1.8-4 4v8c0 2.2 1.8 4 4 4h6l12.6 15.4c1.3 1.3 3.4 0.4 3.4-1.4v-44c0-1.8-2.2-2.7-3.4-1.4z m18 6.1c-0.4-0.4-1-0.4-1.4 0l-1.4 1.4c-0.4 0.4-0.4 1.1 0 1.4 3.8 3.7 6.2 8.8 6.2 14.5 0 5.7-2.4 10.8-6.2 14.5-0.4 0.4-0.4 1 0 1.4l1.4 1.4c0.4 0.4 1 0.4 1.4 0 4.5-4.3 7.4-10.5 7.4-17.3 0-6.8-2.8-13-7.4-17.3z m-6.3 6.4c-0.4-0.4-1-0.4-1.4 0l-1.4 1.4c-0.4 0.4-0.4 1 0 1.4 2.2 2 3.5 4.9 3.5 8.1 0 3.2-1.4 6.1-3.6 8.1-0.4 0.4-0.4 1 0 1.4l1.4 1.4c0.4 0.4 1 0.4 1.4 0 2.9-2.7 4.8-6.6 4.8-11 0-4.2-1.8-8.1-4.7-10.8z"></path></g></svg>

<?xml version="1.0" encoding="utf-8"?>
<!-- Generator: Adobe Illustrator 18.1.1, SVG Export Plug-In . SVG Version: 6.00 Build 0)  -->
<svg version="1.1" id="Layer_1" xmlns="http://www.w3.org/2000/svg" xmlns:xlink="http://www.w3.org/1999/xlink" x="0px" y="0px"
	 width="52px" height="52px" viewBox="0 0 52 52" enable-background="new 0 0 52 52" xml:space="preserve">
<g>
	<path fill="#FFFFFF" d="M24.6,2.6L12,18H6c-2.2,0-4,1.8-4,4v8c0,2.2,1.8,4,4,4h6l12.6,15.4c1.3,1.3,3.4,0.4,3.4-1.4V4
		C28,2.2,25.8,1.3,24.6,2.6z"/>
	<path fill="#FFFFFF" d="M42.6,8.7c-0.4-0.4-1-0.4-1.4,0l-1.4,1.4c-0.4,0.4-0.4,1.1,0,1.4C43.6,15.2,46,20.3,46,26
		c0,5.7-2.4,10.8-6.2,14.5c-0.4,0.4-0.4,1,0,1.4l1.4,1.4c0.4,0.4,1,0.4,1.4,0C47.1,39,50,32.8,50,26C50,19.2,47.2,13,42.6,8.7z"/>
	<path fill="#FFFFFF" d="M36.3,15.1c-0.4-0.4-1-0.4-1.4,0l-1.4,1.4c-0.4,0.4-0.4,1,0,1.4c2.2,2,3.5,4.9,3.5,8.1
		c0,3.2-1.4,6.1-3.6,8.1c-0.4,0.4-0.4,1,0,1.4l1.4,1.4c0.4,0.4,1,0.4,1.4,0c2.9-2.7,4.8-6.6,4.8-11C41,21.7,39.2,17.8,36.3,15.1z"/>
</g>
</svg>
